src/assets/icons/default/IconLogout.svg

<svg width="20" height="20" viewBox="0 0 16 16" fill="none" xmlns="http://www.w3.org/2000/svg">
<g clip-path="url(#clip0_1326_14273)">
<path d="M9.9999 8.66703C9.63125 8.66703 9.33328 8.96573 9.33328 9.33365V12.0004C9.33328 12.3677 9.03457 12.667 8.66654 12.667H6.66656V2.66709C6.66656 2.09776 6.30389 1.5891 5.75861 1.39977L5.56122 1.33373H8.66654C9.03457 1.33373 9.33328 1.63304 9.33328 2.00047V4.00045C9.33328 4.36836 9.63125 4.66707 9.9999 4.66707C10.3685 4.66707 10.6665 4.36836 10.6665 4.00045V2.00047C10.6665 0.897818 9.76919 0.000488281 8.66654 0.000488281H1.49998C1.47459 0.000488281 1.45335 0.0118407 1.4287 0.0151366C1.39659 0.0124511 1.36595 0.000488281 1.33336 0.000488281C0.598016 0.000488281 0 0.598383 0 1.33373V13.3336C0 13.9029 0.362667 14.4116 0.907949 14.6009L4.91999 15.9383C5.05598 15.9803 5.19123 16.0003 5.33332 16.0003C6.06866 16.0003 6.66656 15.4023 6.66656 14.667V14.0003H8.66654C9.76919 14.0003 10.6665 13.103 10.6665 12.0004V9.33365C10.6665 8.96573 10.3685 8.66703 9.9999 8.66703Z" fill="currentColor"/>
<path d="M15.8045 6.19561L13.1378 3.52901C12.9472 3.33834 12.6605 3.28096 12.4112 3.38423C12.1626 3.48763 11.9998 3.73091 11.9998 4.00032V6.0003H9.33324C8.96521 6.0003 8.6665 6.29888 8.6665 6.66692C8.6665 7.03495 8.96521 7.33353 9.33324 7.33353H11.9998V9.33351C11.9998 9.60292 12.1626 9.8462 12.4112 9.9496C12.6605 10.0529 12.9472 9.99549 13.1378 9.80494L15.8045 7.13822C16.0651 6.87761 16.0651 6.45622 15.8045 6.19561Z" fill="currentColor"/>
</g>
<defs>
<clipPath id="clip0_1326_14273">
<rect width="16" height="16" fill="white"/>
</clipPath>
</defs>
</svg>

<svg xmlns="http://www.w3.org/2000/svg" width="20" height="20" fill="none" viewBox="0 0 16 16">
  <g fill="currentcolor" clip-path="url(#a)">
    <path d="M10 8.67c-.37 0-.67.3-.67.66V12c0 .37-.3.67-.66.67h-2v-10c0-.57-.37-1.08-.91-1.27l-.2-.07h3.1c.37 0 .67.3.67.67v2a.67.67 0 1 0 1.34 0V2a2 2 0 0 0-2-2H1.5l-.07.02-.1-.02C.6 0 0 .6 0 1.33v12c0 .57.36 1.08.9 1.27l4.02 1.34q.2.06.41.06c.74 0 1.34-.6 1.34-1.33V14h2a2 2 0 0 0 2-2V9.33c0-.36-.3-.66-.67-.66"/>
    <path d="m15.8 6.2-2.66-2.67A.67.67 0 0 0 12 4v2H9.33a.67.67 0 0 0 0 1.33H12v2a.67.67 0 0 0 1.14.47l2.66-2.66a.67.67 0 0 0 0-.94"/>
  </g>
  <defs>
    <clipPath id="a">
      <path fill="#fff" d="M0 0h16v16H0z"/>
    </clipPath>
  </defs>
</svg>
